code/images/jabala.svg

<?xml version="1.0" encoding="UTF-8" standalone="no"?> <!-- Created with Vectornator for iOS (http://vectornator.io/) --><!DOCTYPE svg PUBLIC "-//W3C//DTD SVG 1.1//EN" "http://www.w3.org/Graphics/SVG/1.1/DTD/svg11.dtd">
<svg height="100%" style="fill-rule:nonzero;clip-rule:evenodd;stroke-linecap:round;stroke-linejoin:round;" xmlns:xlink="http://www.w3.org/1999/xlink" xmlns="http://www.w3.org/2000/svg" xml:space="preserve" width="100%" xmlns:vectornator="http://vectornator.io" version="1.1" viewBox="0 0 125 124.47">
<metadata>
<vectornator:setting key="DimensionsVisible" value="1"/>
<vectornator:setting key="PencilOnly" value="0"/>
<vectornator:setting key="SnapToPoints" value="0"/>
<vectornator:setting key="OutlineMode" value="0"/>
<vectornator:setting key="CMYKEnabledKey" value="0"/>
<vectornator:setting key="RulersVisible" value="1"/>
<vectornator:setting key="SnapToEdges" value="0"/>
<vectornator:setting key="GuidesVisible" value="1"/>
<vectornator:setting key="DisplayWhiteBackground" value="0"/>
<vectornator:setting key="doHistoryDisabled" value="0"/>
<vectornator:setting key="SnapToGuides" value="1"/>
<vectornator:setting key="TimeLapseWatermarkDisabled" value="0"/>
<vectornator:setting key="Units" value="Points"/>
<vectornator:setting key="DynamicGuides" value="0"/>
<vectornator:setting key="IsolateActiveLayer" value="0"/>
<vectornator:setting key="SnapToGrid" value="0"/>
</metadata>
<defs/>
<g id="Person 21" vectornator:layerName="Person 21">
<path stroke="#000000" stroke-width="0.75" d="M35.62+86.8C35.62+86.8+36.62+93.93+40.32+98.15C44.02+102.37+49.4+104.83+61.23+104.83C73.06+104.83+79.37+100.74+81.15+98.9C82.93+97.06+87.15+90.57+89.29+86.42" fill="none" stroke-linecap="butt" opacity="1" stroke-linejoin="miter"/>
<g opacity="1">
<g opacity="1">
<path stroke="#000000" stroke-width="0.75" d="M43.02+60.12L82.89+60.12L82.89+60.12L82.89+87.2L82.89+87.2L43.02+87.2L43.02+87.2L43.02+60.12L43.02+60.12Z" fill="#1e4918" stroke-linecap="butt" opacity="1" stroke-linejoin="miter"/>
<path stroke="#020202" stroke-width="0.75" d="M52.08+72.41C52.08+72.41+51.59+78.79+50.59+81.12C49.59+83.45+37.85+86.12+37.85+86.12C37.85+86.12+36.37+87.56+37.1+88.9C37.83+90.24+53.3+104.9+63.49+104.3C73.68+103.7+88.49+89.91+90.05+88.9C91.61+87.89+90.69+87.16+90.69+87.16C90.69+87.16+76.83+84.37+75.42+81.88C74.01+79.39+74.26+72.12+74.26+72.12L52.08+72.41Z" fill="#d19a75" stroke-linecap="butt" opacity="1" stroke-linejoin="miter"/>
</g>
<path stroke="#020202" stroke-width="0.75" d="M42.47+55.7C42.47+55.7+45.37+67.63+50.47+72.58C55.75+77.67+58.41+80.49+64.47+80.49C70.53+80.49+75.77+71.56+78.89+64.82C82.01+58.08+83.27+51.82+82.83+48.33C82.39+44.84+76.92+22.91+62+22.88C42.85+22.83+41.36+45.6+42.47+55.7Z" fill="#d19a75" stroke-linecap="butt" opacity="1" stroke-linejoin="miter"/>
<path stroke="#000000" stroke-width="0.75" d="M65.13+54.25C65.72+55.67+68.57+57.07+67.43+58.84C66.58+60.16+62.27+60.84+62.25+58.84" fill="none" stroke-linecap="butt" opacity="1" stroke-linejoin="miter"/>
</g>
<path stroke="#000000" stroke-width="0.75" d="M5.47+124.71C6.08+117.91+7.28+111.3+8.05+106.63C8.82+101.96+9+100+11.48+96C13.96+92+18.09+90.72+22.48+89.87C27.12+88.96+29.11+87.87+33.76+87.24C36.429+86.6887+39.026+85.8331+41.5+84.69C42.44+84.27+41.84+92.26+49.27+96C58.0701+100.162+68.3946+99.4889+76.58+94.22C79.98+91.96+81.28+88.33+83.48+84.69C86.82+85.34+90.54+85.38+93.75+86.45C99.29+88.28+111.09+90.25+113.38+97.11C116.04+105.11+116.93+115.46+117.21+124.9" fill="#6a75c1" stroke-linecap="butt" opacity="1" stroke-linejoin="miter"/>
<path stroke="#000000" stroke-width="0.75" d="M95.77+86.15C95.0315+85.6203+94.2151+85.2087+93.35+84.93C92.95+83.67+92.74+82.06+91.35+81.28C91.11+81.15+89.04+80.91+88.94+80.49C88.94+80.49+89.75+79.21+90.01+78.7C90.5137+77.4188+90.3047+75.967+89.46+74.88C88.69+74.02+87.19+73.4+87.29+72.09C88.1431+59.1931+87.5055+46.2408+85.39+33.49C85.0843+31.0261+84.4486+28.6145+83.5+26.32C80.36+19.51+75.5+11.76+62.5+11.97C49.5+12.18+40.42+21.21+38.77+33.47C37.57+42.47+38.13+51.54+38.54+60.56C38.8127+65.6884+38.3786+70.8299+37.25+75.84C36.79+77.77+35.52+79.84+35.97+81.78C36.38+83.49+38.48+84.55+38.82+86.3C38.8681+86.4736+38.8502+86.6588+38.77+86.82C38.15+87.82+39.17+100.1+43.49+107.26C47.81+114.42+53.2+122.47+62.03+122.68C73.14+122.93+82.03+113.11+88.45+105.24C92+101+95.82+97+96.83+91.31C97.11+89.71+97+87.52+95.77+86.15ZM80.77+73.66C79.4+82.66+69.96+86.78+60.77+86.25C56.64+86.01+51.98+85.42+49.77+81.52C47.0209+76.6023+45.5043+71.0918+45.35+65.46C45.2+57.29+44.09+38.81+47.42+34.31C50.75+29.81+59+24.84+63+25.11C67+25.38+78.5+31.92+78.36+38.36C78.15+47.93+81.2+70.66+80.75+73.66L80.77+73.66Z" fill="#8363a6" stroke-linecap="butt" opacity="1" stroke-linejoin="miter"/>
<path stroke="#231f20" stroke-width="0.75" d="M57.54+34.09C57.54+34.09+55.3+31.6+53.75+34.42C52.2+37.24+51.63+38.57+51.63+38.57" fill="none" stroke-linecap="butt" opacity="1" stroke-linejoin="miter"/>
<path stroke="#231f20" stroke-width="0.75" d="M70.35+34.52C70.35+34.52+71.87+32.86+73.6+35.08C74.6047+36.3416+75.3799+37.77+75.89+39.3" fill="none" stroke-linecap="butt" opacity="1" stroke-linejoin="miter"/>
<path stroke="#231f20" stroke-width="0.75" d="M59.24+45.44C59.0166+46.834+58.5745+48.1839+57.93+49.44C55.93+52.27+52.6+53.74+49.29+52.08C47+50.93+45.44+48.25+44.71+45.87C43.59+42.16+44.15+40.87+45.05+40.61C47.0002+40.0646+49.0314+39.8682+51.05+40.03C53.67+40.31+56.58+41.03+57.76+42.17C58.94+43.31+59.53+44.15+59.24+45.44Z" fill="#231f20" stroke-linecap="butt" opacity="1" stroke-linejoin="miter"/>
<path stroke="#231f20" stroke-width="0.75" d="M65.46+45.46C65.6784+46.8538+66.1172+48.2041+66.76+49.46C67.57+50.6+68.94+52.46+71.22+52.76C72.6372+53.0133+74.0983+52.7955+75.38+52.14C77.6122+50.6836+79.2506+48.4777+80+45.92C81.15+42.21+80.59+40.92+79.69+40.66C77.7423+40.1007+75.7104+39.8941+73.69+40.05C71.07+40.32+68.15+41.05+66.97+42.16C65.79+43.27+65.18+44.16+65.46+45.46Z" fill="#231f20" stroke-linecap="butt" opacity="1" stroke-linejoin="miter"/>
<path stroke="#231f20" stroke-width="0.75" d="M65.18+42.7966C64.0384+42.8923+62.8907+42.8923+61.7491+42.7966C61.2273+42.5968+57.5632+39.2103+55.9532+38.6329C53.1994+37.7312+50.3116+37.3069+47.4148+37.3782C44.8833+37.6558+41.3524+38.4886+40.875+40.0652C40.3975+41.6419+40.9638+45.417+42.1852+48.5703C43.4065+51.7236+44.7944+53.6223+47.6591+54.8659C50.5237+56.1094+53.0442+56.3537+54.9428+55.4543C57.4266+54.2966+59.3396+52.1875+60.2502+49.6029C61.1051+46.9381+62.4708+45.9833+63.3036+45.9944C64.8061+46.0993+65.9933+47.3103+66.0683+48.8146C66.4458+51.2795+69.3993+55.6764+73.2965+55.8319C80.1028+56.0983+84.7662+51.3128+85.9986+44.7952C86.6759+41.2311+86.4872+39.61+85.2436+38.7439C84.0001+37.8779+79.6143+36.8453+76.1723+37.3893C72.7302+37.9334+67.2563+39.0659+65.18+42.7966Z" fill="#231f20" stroke-linecap="butt" opacity="1" stroke-linejoin="miter"/>
<path stroke="#231f20" stroke-width="0.75" d="M60.128+45.2949C59.8674+46.8944+59.3539+48.4423+58.6069+49.8805C56.253+53.156+52.4446+54.8659+48.6139+52.945C45.9603+51.6126+44.1726+48.5037+43.3177+45.7501C42.0075+41.4531+42.6626+39.9431+43.7063+39.6655C45.9661+39.037+48.3183+38.8077+50.657+38.9882C53.6881+39.3213+57.0635+40.1763+58.4292+41.4642C59.7949+42.7522+60.4611+43.7959+60.128+45.2949Z" fill="#3d3d3d" stroke-linecap="butt" opacity="1" stroke-linejoin="miter"/>
<path stroke="#231f20" stroke-width="0.75" d="M67.323+45.306C67.5775+46.9091+68.0873+48.461+68.833+49.9027C69.7768+51.224+71.3534+53.4224+73.9849+53.7222C75.6257+54.0143+77.317+53.7648+78.8037+53.0116C81.3731+51.3318+83.262+48.7936+84.1333+45.85C85.4657+41.5531+84.8217+40.0319+83.778+39.7654C81.5206+39.1237+79.1674+38.8869+76.8273+39.0659C73.7962+39.3879+70.4208+40.1763+69.0551+41.5086C67.6894+42.841+67.001+43.807+67.323+45.306Z" fill="#3d3d3d" stroke-linecap="butt" opacity="1" stroke-linejoin="miter"/>
<path stroke="#000000" stroke-width="0.75" d="M39+86.46C39+86.46+49.41+100.99+61+98.69C72.59+96.39+81.14+88.88+88.86+80.49" fill="none" stroke-linecap="butt" opacity="1" stroke-linejoin="miter"/>
<path stroke="#000000" stroke-width="0.75" d="M38.46+85.37C40.4707+90.3664+43.0333+95.1226+46.1+99.55C47.6815+101.611+49.4128+103.553+51.28+105.36C53.19+107.29+55.08+109.36+57.59+110.54C64.04+113.54+70.74+109.25+75.52+105.11C81+100.36+86.78+94.87+91.07+89C92.046+87.7614+92.8158+86.3736+93.35+84.89" fill="none" stroke-linecap="butt" opacity="1" stroke-linejoin="miter"/>
<path stroke="#020202" stroke-width="0.75" d="M62.124+71.4412C66.4435+71.5589+71.692+67.657+72.084+66.2948C72.4759+64.9325+64.1395+66.8459+59.8043+66.7304C55.4691+66.615+52.8431+63.6278+52.4555+65.0197C52.068+66.4116+57.836+71.3187+62.124+71.4412Z" fill="#ffffff" stroke-linecap="butt" opacity="1" stroke-linejoin="miter"/>
</g>
</svg>

<svg xmlns="http://www.w3.org/2000/svg" viewBox="0 0 125 124.47"><title>Artboard 54</title><g id="Person_21" data-name="Person 21"><path d="M35.62,86.8s1,7.13,4.7,11.35,9.08,6.68,20.91,6.68,18.14-4.09,19.92-5.93,6-8.33,8.14-12.48" fill="none" stroke="#000" stroke-miterlimit="10" stroke-width="0.75"/><g id="hat_copy_4" data-name="hat copy 4"><g id="neck"><rect x="43.02" y="60.12" width="39.87" height="27.08" fill="#1e4918" stroke="#000" stroke-miterlimit="10" stroke-width="0.75"/><path d="M52.08,72.41s-.49,6.38-1.49,8.71-12.74,5-12.74,5-1.48,1.44-.75,2.78,16.2,16,26.39,15.4,25-14.39,26.56-15.4.64-1.74.64-1.74-13.86-2.79-15.27-5.28-1.16-9.76-1.16-9.76Z" fill="#d19a75" stroke="#020202" stroke-miterlimit="10" stroke-width="0.75"/></g><path id="head-3" data-name="head" d="M42.47,55.7s2.9,11.93,8,16.88c5.28,5.09,7.94,7.91,14,7.91s11.3-8.93,14.42-15.67,4.38-13,3.94-16.49S76.92,22.91,62,22.88C42.85,22.83,41.36,45.6,42.47,55.7Z" fill="#d19a75" stroke="#020202" stroke-miterlimit="10" stroke-width="0.75"/><path id="nose-4" data-name="nose" d="M65.13,54.25c.59,1.42,3.44,2.82,2.3,4.59-.85,1.32-5.16,2-5.18,0" fill="none" stroke="#000" stroke-miterlimit="10" stroke-width="0.75"/></g><path id="shirt-3" data-name="shirt" d="M5.47,124.71c.61-6.8,1.81-13.41,2.58-18.08S9,100,11.48,96s6.61-5.28,11-6.13c4.64-.91,6.63-2,11.28-2.63a35.64,35.64,0,0,0,7.74-2.55c.94-.42.34,7.57,7.77,11.31a28.19,28.19,0,0,0,27.31-1.78c3.4-2.26,4.7-5.89,6.9-9.53,3.34.65,7.06.69,10.27,1.76,5.54,1.83,17.34,3.8,19.63,10.66,2.66,8,3.55,18.35,3.83,27.79" fill="#3caa33" stroke="#000" stroke-miterlimit="10" stroke-width="0.75"/><path d="M95.77,86.15a8.76,8.76,0,0,0-2.42-1.22c-.4-1.26-.61-2.87-2-3.65-.24-.13-2.31-.37-2.41-.79,0,0,.81-1.28,1.07-1.79a3.9,3.9,0,0,0-.55-3.82c-.77-.86-2.27-1.48-2.17-2.79a168.06,168.06,0,0,0-1.9-38.6,27.69,27.69,0,0,0-1.89-7.17c-3.14-6.81-8-14.56-21-14.35s-22.08,9.24-23.73,21.5c-1.2,9-.64,18.07-.23,27.09a56,56,0,0,1-1.29,15.28c-.46,1.93-1.73,4-1.28,5.94.41,1.71,2.51,2.77,2.85,4.52a.73.73,0,0,1-.05.52c-.62,1,.4,13.28,4.72,20.44s9.71,15.21,18.54,15.42c11.11.25,20-9.57,26.42-17.44C92,101,95.82,97,96.83,91.31,97.11,89.71,97,87.52,95.77,86.15Zm-15-12.49c-1.37,9-10.81,13.12-20,12.59-4.13-.24-8.79-.83-11-4.73a34.87,34.87,0,0,1-4.42-16.06c-.15-8.17-1.26-26.65,2.07-31.15S59,24.84,63,25.11s15.5,6.81,15.36,13.25C78.15,47.93,81.2,70.66,80.75,73.66Z" fill="#3caa33" stroke="#000" stroke-miterlimit="10" stroke-width="0.75"/><path d="M57.54,34.09s-2.24-2.49-3.79.33-2.12,4.15-2.12,4.15" fill="none" stroke="#231f20" stroke-miterlimit="10" stroke-width="0.75"/><path d="M70.35,34.52s1.52-1.66,3.25.56a13.76,13.76,0,0,1,2.29,4.22" fill="none" stroke="#231f20" stroke-miterlimit="10" stroke-width="0.75"/><path d="M59.24,45.44a13.41,13.41,0,0,1-1.31,4c-2,2.83-5.33,4.3-8.64,2.64-2.29-1.15-3.85-3.83-4.58-6.21-1.12-3.71-.56-5,.34-5.26a17.18,17.18,0,0,1,6-.58c2.62.28,5.53,1,6.71,2.14S59.53,44.15,59.24,45.44Z" fill="#231f20" stroke="#231f20" stroke-miterlimit="10" stroke-width="0.75"/><path d="M65.46,45.46a13.3,13.3,0,0,0,1.3,4c.81,1.14,2.18,3,4.46,3.3a6.59,6.59,0,0,0,4.16-.62A11.18,11.18,0,0,0,80,45.92c1.15-3.71.59-5-.31-5.26a17,17,0,0,0-6-.61c-2.62.27-5.54,1-6.72,2.11S65.18,44.16,65.46,45.46Z" fill="#231f20" stroke="#231f20" stroke-miterlimit="10" stroke-width="0.75"/><path d="M64,42.36a18.5,18.5,0,0,1-3.09,0c-.47-.18-3.77-3.23-5.22-3.75A22.9,22.9,0,0,0,48,37.48c-2.28.25-5.46,1-5.89,2.42s.08,4.82,1.18,7.66,2.35,4.55,4.93,5.67,4.85,1.34,6.56.53a9.18,9.18,0,0,0,4.78-5.27c.77-2.4,2-3.26,2.75-3.25a2.68,2.68,0,0,1,2.49,2.54c.34,2.22,3,6.18,6.51,6.32,6.13.24,10.33-4.07,11.44-9.94.61-3.21.44-4.67-.68-5.45S77,37,73.9,37.49,65.87,39,64,42.36Z" fill="#231f20" stroke="#231f20" stroke-miterlimit="10" stroke-width="0.75"/><path d="M59.45,44.61a13.76,13.76,0,0,1-1.37,4.13c-2.12,2.95-5.55,4.49-9,2.76-2.39-1.2-4-4-4.77-6.48-1.18-3.87-.59-5.23.35-5.48a18.15,18.15,0,0,1,6.26-.61c2.73.3,5.77,1.07,7,2.23S59.75,43.26,59.45,44.61Z" fill="#3d3d3d" stroke="#231f20" stroke-miterlimit="10" stroke-width="0.75"/><path d="M65.93,44.62a13.68,13.68,0,0,0,1.36,4.14c.85,1.19,2.27,3.17,4.64,3.44a6.92,6.92,0,0,0,4.34-.64,11.66,11.66,0,0,0,4.8-6.45c1.2-3.87.62-5.24-.32-5.48A17.9,17.9,0,0,0,74.49,39c-2.73.29-5.77,1-7,2.2S65.64,43.27,65.93,44.62Z" fill="#3d3d3d" stroke="#231f20" stroke-miterlimit="10" stroke-width="0.75"/><path d="M39,86.46s10.41,14.53,22,12.23,20.14-9.81,27.86-18.2" fill="none" stroke="#000" stroke-miterlimit="10" stroke-width="0.75"/><path d="M38.46,85.37A72.32,72.32,0,0,0,46.1,99.55a52.83,52.83,0,0,0,5.18,5.81c1.91,1.93,3.8,4,6.31,5.18,6.45,3,13.15-1.29,17.93-5.43C81,100.36,86.78,94.87,91.07,89a14.67,14.67,0,0,0,2.28-4.11" fill="none" stroke="#000" stroke-miterlimit="10" stroke-width="0.75"/><path d="M58.32,71.34C61,72.09,64.63,69,65,67.71s-5-.62-7.69-1.37-4.05-4.09-4.42-2.77S55.66,70.59,58.32,71.34Z" fill="#fff" stroke="#020202" stroke-miterlimit="10" stroke-width="0.75"/></g></svg>
